icons/op-file-check-16.svg

<svg width="16" height="16" viewBox="0 0 16 16" fill="none" xmlns="http://www.w3.org/2000/svg">
<path d="M1.75 1.5C1.61193 1.5 1.5 1.61193 1.5 1.75V13.25C1.5 13.3881 1.61193 13.5 1.75 13.5H4.75C5.16421 13.5 5.5 13.8358 5.5 14.25C5.5 14.6642 5.16421 15 4.75 15H1.75C0.783502 15 0 14.2165 0 13.25V1.75C0 0.783502 0.783501 0 1.75 0H8.33579C8.79991 0 9.24503 0.184374 9.57322 0.512563L12.4874 3.42678C12.8156 3.75497 13 4.20008 13 4.66421V6.70711C13 7.12132 12.6642 7.45711 12.25 7.45711C11.8358 7.45711 11.5 7.12132 11.5 6.70711V4.66421C11.5 4.59791 11.4737 4.53432 11.4268 4.48744L8.51256 1.57322C8.46568 1.52634 8.40209 1.5 8.33579 1.5H1.75Z" fill="#1F2328"/>
<path fill-rule="evenodd" clip-rule="evenodd" d="M13.4983 9.43944C13.8079 9.71463 13.8357 10.1887 13.5606 10.4983L9.03211 15.5928L6.96967 13.5303C6.67678 13.2374 6.67678 12.7626 6.96967 12.4697C7.26256 12.1768 7.73744 12.1768 8.03033 12.4697L8.96789 13.4072L12.4394 9.50173C12.7146 9.19214 13.1887 9.16426 13.4983 9.43944Z" fill="#1F2328"/>
</svg>

<svg xmlns="http://www.w3.org/2000/svg" width="16" height="16" viewBox="0 0 16 16"><path d="M1.75 1.5a.25.25 0 0 0-.25.25v11.5c0 .138.112.25.25.25h3a.75.75 0 0 1 0 1.5h-3A1.75 1.75 0 0 1 0 13.25V1.75C0 .784.784 0 1.75 0h6.586c.464 0 .909.184 1.237.513l2.914 2.914c.329.328.513.773.513 1.237v2.043a.75.75 0 0 1-1.5 0V4.664a.25.25 0 0 0-.073-.177L8.513 1.573a.25.25 0 0 0-.177-.073H1.75Z"/><path d="M13.498 9.439a.75.75 0 0 1 .063 1.059l-4.529 5.095L6.97 13.53a.749.749 0 1 1 1.06-1.06l.938.937 3.471-3.905a.75.75 0 0 1 1.059-.063Z"/></svg>
